; generated by Slic3r Prusa Edition 1.41.2+linux64 on 2019-01-13 at 23:45:26

; 

; external perimeters extrusion width = 0.56mm
; perimeters extrusion width = 0.56mm
; infill extrusion width = 0.56mm
; solid infill extrusion width = 0.56mm
; top infill extrusion width = 0.50mm
; first layer extrusion width = 0.70mm

M107
M104 S200 ; set temperature
G28 ; home all axes
G1 Z5 F5000 ; lift nozzle
; Filament gcode
M109 S200 ; set temperature and wait for it to be reached
G21 ; set units to millimeters
G90 ; use absolute coordinates
M82 ; use absolute distances for extrusion
G92 E0
G1 Z0.350 F7800.000
G1 E-2.00000 F2400.00000
G92 E0
G1 X91.656 Y80.952 F7800.000
G1 E2.00000 F2400.00000
G1 F1800
G1 X92.817 Y79.873 E2.04904
G1 X93.496 Y79.448 E2.07380
G1 X94.216 Y79.115 E2.09836
G1 X95.191 Y78.825 E2.12983
G1 X96.206 Y78.694 E2.16148
G1 X103.506 Y78.688 E2.38737
G1 X104.611 Y78.786 E2.42171
G1 X105.682 Y79.077 E2.45604
G1 X106.686 Y79.550 E2.49037
G1 X107.586 Y80.188 E2.52451
G1 X108.362 Y80.974 E2.55866
G1 X108.991 Y81.887 E2.59299
G1 X109.452 Y82.897 E2.62732
G1 X109.728 Y83.971 E2.66166
G1 X109.812 Y84.985 E2.69312
G1 X109.812 Y115.006 E3.62202
G1 X109.698 Y116.197 E3.65904
G1 X109.491 Y116.989 E3.68437
G1 X109.180 Y117.753 E3.70989
G1 X108.773 Y118.471 E3.73542
G1 X108.275 Y119.129 E3.76094
G1 X107.696 Y119.716 E3.78647
G1 X107.045 Y120.223 E3.81200
G1 X106.334 Y120.641 E3.83752
G1 X105.574 Y120.962 E3.86305
G1 X104.626 Y121.211 E3.89336
G1 X103.646 Y121.311 E3.92387
G1 X96.413 Y121.312 E4.14765
G1 X95.303 Y121.198 E4.18217
G1 X94.358 Y120.938 E4.21249
G1 X93.460 Y120.532 E4.24299
G1 X92.641 Y119.995 E4.27331
G1 X91.910 Y119.333 E4.30381
G1 X91.291 Y118.566 E4.33432
G1 X90.802 Y117.717 E4.36463
G1 X90.450 Y116.802 E4.39495
G1 X90.243 Y115.838 E4.42545
G1 X90.188 Y115.015 E4.45098
G1 X90.188 Y84.988 E5.38007
G1 X90.302 Y83.803 E5.41689
G1 X90.503 Y83.029 E5.44165
G1 X90.798 Y82.291 E5.46622
G1 X91.183 Y81.597 E5.49079
G1 X91.612 Y81.012 E5.51322
; PURGING FINISHED
G1 E3.51322 F2400.00000
G92 E0
G1 X101.900 Y113.400 F7800.000
G1 E2.00000 F2400.00000
G1 F1800
G1 X98.100 Y113.400 E2.11759
G1 X98.100 Y86.600 E2.94683
G1 X101.900 Y86.600 E3.06442
G1 X101.900 Y113.325 E3.89134
G1 X102.525 Y114.025 F7800.000
G1 F1800
G1 X97.475 Y114.025 E4.04760
G1 X97.475 Y85.975 E4.91551
G1 X102.525 Y85.975 E5.07178
G1 X102.525 Y113.950 E5.93737
G1 X103.150 Y114.650 F7800.000
G1 F1800
G1 X96.850 Y114.650 E6.13230
G1 X96.850 Y85.350 E7.03888
G1 X103.150 Y85.350 E7.23381
G1 X103.150 Y114.575 E8.13807
G1 X102.700 Y114.431 F7800.000
G1 E6.13807 F2400.00000
G92 E0
G1 X98.287 Y111.913 F7800.000
G1 E2.00000 F2400.00000
G1 F1800
G1 X99.306 Y112.932 E2.04582
G1 X100.214 Y112.932 E2.07471
G1 X98.568 Y111.286 E2.14875
G1 X98.568 Y110.377 E2.17764
G1 X101.123 Y112.932 E2.29253
G1 X101.432 Y112.932 E2.30235
G1 X101.432 Y112.332 E2.32141
G1 X98.568 Y109.469 E2.45019
G1 X98.568 Y108.560 E2.47908
G1 X101.432 Y111.424 E2.60786
G1 X101.432 Y110.515 E2.63675
G1 X98.568 Y107.652 E2.76553
G1 X98.568 Y106.744 E2.79442
G1 X101.432 Y109.607 E2.92319
G1 X101.432 Y108.699 E2.95208
G1 X98.568 Y105.835 E3.08086
G1 X98.568 Y104.927 E3.10975
G1 X101.432 Y107.790 E3.23853
G1 X101.432 Y106.882 E3.26742
G1 X98.568 Y104.019 E3.39620
G1 X98.568 Y103.110 E3.42509
G1 X101.432 Y105.973 E3.55386
G1 X101.432 Y105.065 E3.58275
G1 X98.568 Y102.202 E3.71153
G1 X98.568 Y101.294 E3.74042
G1 X101.432 Y104.157 E3.86920
G1 X101.432 Y103.248 E3.89809
G1 X98.568 Y100.385 E4.02686
G1 X98.568 Y99.477 E4.05575
G1 X101.432 Y102.340 E4.18453
G1 X101.432 Y101.432 E4.21342
G1 X98.568 Y98.568 E4.34220
G1 X98.568 Y97.660 E4.37109
G1 X101.432 Y100.523 E4.49987
G1 X101.432 Y99.615 E4.52876
G1 X98.568 Y96.752 E4.65753
G1 X98.568 Y95.843 E4.68642
G1 X101.432 Y98.707 E4.81520
G1 X101.432 Y97.798 E4.84409
G1 X98.568 Y94.935 E4.97287
G1 X98.568 Y94.027 E5.00176
G1 X101.432 Y96.890 E5.13054
G1 X101.432 Y95.981 E5.15943
G1 X98.568 Y93.118 E5.28820
G1 X98.568 Y92.210 E5.31709
G1 X101.432 Y95.073 E5.44587
G1 X101.432 Y94.165 E5.47476
G1 X98.568 Y91.302 E5.60354
G1 X98.568 Y90.393 E5.63243
G1 X101.432 Y93.256 E5.76120
G1 X101.432 Y92.348 E5.79009
G1 X98.568 Y89.485 E5.91887
G1 X98.568 Y88.576 E5.94776
G1 X101.432 Y91.440 E6.07654
G1 X101.432 Y90.531 E6.10543
G1 X98.568 Y87.668 E6.23421
G1 X98.568 Y87.068 E6.25328
G1 X98.877 Y87.068 E6.26310
G1 X101.432 Y89.623 E6.37799
G1 X101.432 Y88.715 E6.40688
G1 X99.785 Y87.068 E6.48092
G1 X100.694 Y87.068 E6.50981
G1 X101.713 Y88.087 E6.55564
G1 Z0.650 F7800.000
; PURGING FINISHED
G1 X102.223 Y113.723
G1 F3600
G1 X97.777 Y113.723 E6.64961
G1 X97.777 Y86.277 E7.22982
G1 X102.223 Y86.277 E7.32379
G1 X102.223 Y113.648 E7.90241
G1 X102.721 Y114.221 F7800.000
G1 F3600
G1 X97.279 Y114.221 E8.01745
G1 X97.279 Y85.779 E8.61872
G1 X102.721 Y85.779 E8.73375
G1 X102.721 Y114.146 E9.33344
G1 X103.219 Y114.719 F7800.000
G1 F1800
G1 X96.781 Y114.719 E9.46953
G1 X96.781 Y85.281 E10.09187
G1 X103.219 Y85.281 E10.22796
G1 X103.219 Y114.644 E10.84871
G1 X102.769 Y114.500 F7800.000
G1 X101.053 Y113.573
G1 F1200
G1 X101.849 Y112.777 E10.87282
G1 X101.849 Y112.063 E10.88810
G1 X100.563 Y113.349 E10.92703
G1 X99.850 Y113.349 E10.94230
G1 X101.849 Y111.350 E11.00283
G1 X101.849 Y110.636 E11.01811
G1 X99.136 Y113.349 E11.10024
G1 X98.423 Y113.349 E11.11552
G1 X101.849 Y109.923 E11.21926
G1 X101.849 Y109.210 E11.23453
G1 X98.151 Y112.907 E11.34650
G1 X98.151 Y112.194 E11.36178
G1 X101.849 Y108.496 E11.47375
G1 X101.849 Y107.783 E11.48903
G1 X98.151 Y111.481 E11.60100
G1 X98.151 Y110.767 E11.61628
G1 X101.849 Y107.069 E11.72825
G1 X101.849 Y106.356 E11.74353
G1 X98.151 Y110.054 E11.85550
G1 X98.151 Y109.340 E11.87077
G1 X101.849 Y105.642 E11.98275
G1 X101.849 Y104.929 E11.99802
G1 X98.151 Y108.627 E12.10999
G1 X98.151 Y107.913 E12.12527
G1 X101.849 Y104.215 E12.23724
G1 X101.849 Y103.502 E12.25252
G1 X98.151 Y107.200 E12.36449
G1 X98.151 Y106.486 E12.37977
G1 X101.849 Y102.788 E12.49174
G1 X101.849 Y102.075 E12.50702
G1 X98.151 Y105.773 E12.61899
G1 X98.151 Y105.059 E12.63426
G1 X101.849 Y101.362 E12.74624
G1 X101.849 Y100.648 E12.76151
G1 X98.151 Y104.346 E12.87349
G1 X98.151 Y103.633 E12.88876
G1 X101.849 Y99.935 E13.00073
G1 X101.849 Y99.221 E13.01601
G1 X98.151 Y102.919 E13.12798
G1 X98.151 Y102.206 E13.14326
G1 X101.849 Y98.508 E13.25523
G1 X101.849 Y97.794 E13.27051
G1 X98.151 Y101.492 E13.38248
G1 X98.151 Y100.779 E13.39776
G1 X101.849 Y97.081 E13.50973
G1 X101.849 Y96.367 E13.52500
G1 X98.151 Y100.065 E13.63698
G1 X98.151 Y99.352 E13.65225
G1 X101.849 Y95.654 E13.76423
G1 X101.849 Y94.940 E13.77950
G1 X98.151 Y98.638 E13.89147
G1 X98.151 Y97.925 E13.90675
G1 X101.849 Y94.227 E14.01872
G1 X101.849 Y93.514 E14.03400
G1 X98.151 Y97.211 E14.14597
G1 X98.151 Y96.498 E14.16125
G1 X101.849 Y92.800 E14.27322
G1 X101.849 Y92.087 E14.28850
G1 X98.151 Y95.785 E14.40047
G1 X98.151 Y95.071 E14.41574
G1 X101.849 Y91.373 E14.52772
G1 X101.849 Y90.660 E14.54299
G1 X98.151 Y94.358 E14.65496
G1 X98.151 Y93.644 E14.67024
G1 X101.849 Y89.946 E14.78221
G1 X101.849 Y89.233 E14.79749
G1 X98.151 Y92.931 E14.90946
G1 X98.151 Y92.217 E14.92474
G1 X101.849 Y88.519 E15.03671
G1 X101.849 Y87.806 E15.05199
G1 X98.151 Y91.504 E15.16396
G1 X98.151 Y90.790 E15.17923
G1 X101.849 Y87.092 E15.29121
G1 X101.849 Y86.651 E15.30066
G1 X101.577 Y86.651 E15.30648
G1 X98.151 Y90.077 E15.41022
G1 X98.151 Y89.363 E15.42549
G1 X100.863 Y86.651 E15.50762
G1 X100.150 Y86.651 E15.52290
G1 X98.151 Y88.650 E15.58343
G1 X98.151 Y87.937 E15.59870
G1 X99.437 Y86.651 E15.63763
G1 X98.723 Y86.651 E15.65290
G1 X97.927 Y87.447 E15.67701
G1 Z0.950 F7800.000
; PURGING FINISHED
G1 E13.67701 F2400.00000
G92 E0
G1 X101.724 Y113.224 F7800.000
G1 E2.00000 F2400.00000
G1 F3600
G1 X98.276 Y113.224 E2.07291
G1 X98.276 Y86.776 E2.63206
G1 X101.724 Y86.776 E2.70497
G1 X101.724 Y113.149 E3.26253
G1 X102.223 Y113.723 F7800.000
G1 F3600
G1 X97.777 Y113.723 E3.35651
G1 X97.777 Y86.277 E3.93672
G1 X102.223 Y86.277 E4.03069
G1 X102.223 Y113.648 E4.60931
G1 X102.721 Y114.221 F7800.000
G1 F3600
G1 X97.279 Y114.221 E4.72435
G1 X97.279 Y85.779 E5.32562
G1 X102.721 Y85.779 E5.44065
G1 X102.721 Y114.146 E6.04034
G1 X103.219 Y114.719 F7800.000
G1 F1800
G1 X96.781 Y114.719 E6.17643
G1 X96.781 Y85.281 E6.79877
G1 X103.219 Y85.281 E6.93486
G1 X103.219 Y114.644 E7.55561
G1 X102.769 Y114.500 F7800.000
G1 E5.55561 F2400.00000
G92 E0
G1 X98.422 Y112.183 F7800.000
G1 E2.00000 F2400.00000
G1 F900
G1 X99.121 Y112.882 E2.01855
G1 X99.746 Y112.882 E2.03029
G1 X98.618 Y111.754 E2.06024
G1 X98.618 Y111.128 E2.07198
G1 X100.372 Y112.882 E2.11854
G1 X100.997 Y112.882 E2.13028
G1 X98.618 Y110.503 E2.19345
G1 X98.618 Y109.877 E2.20519
G1 X101.382 Y112.641 E2.27857
G1 X101.382 Y112.016 E2.29031
G1 X98.618 Y109.252 E2.36370
G1 X98.618 Y108.626 E2.37544
G1 X101.382 Y111.390 E2.44882
G1 X101.382 Y110.765 E2.46056
G1 X98.618 Y108.001 E2.53395
G1 X98.618 Y107.375 E2.54569
G1 X101.382 Y110.139 E2.61907
G1 X101.382 Y109.514 E2.63081
G1 X98.618 Y106.750 E2.70420
G1 X98.618 Y106.124 E2.71594
G1 X101.382 Y108.888 E2.78932
G1 X101.382 Y108.263 E2.80106
G1 X98.618 Y105.499 E2.87444
G1 X98.618 Y104.873 E2.88619
G1 X101.382 Y107.637 E2.95957
G1 X101.382 Y107.012 E2.97131
G1 X98.618 Y104.248 E3.04469
G1 X98.618 Y103.622 E3.05644
G1 X101.382 Y106.386 E3.12982
G1 X101.382 Y105.761 E3.14156
G1 X98.618 Y102.997 E3.21494
G1 X98.618 Y102.371 E3.22669
G1 X101.382 Y105.135 E3.30007
G1 X101.382 Y104.510 E3.31181
G1 X98.618 Y101.746 E3.38519
G1 X98.618 Y101.120 E3.39694
G1 X101.382 Y103.884 E3.47032
G1 X101.382 Y103.259 E3.48206
G1 X98.618 Y100.495 E3.55544
G1 X98.618 Y99.869 E3.56719
G1 X101.382 Y102.633 E3.64057
G1 X101.382 Y102.008 E3.65231
G1 X98.618 Y99.243 E3.72569
G1 X98.618 Y98.618 E3.73744
G1 X101.382 Y101.382 E3.81082
G1 X101.382 Y100.757 E3.82256
G1 X98.618 Y97.992 E3.89594
G1 X98.618 Y97.367 E3.90769
G1 X101.382 Y100.131 E3.98107
G1 X101.382 Y99.506 E3.99281
G1 X98.618 Y96.741 E4.06619
G1 X98.618 Y96.116 E4.07794
G1 X101.382 Y98.880 E4.15132
G1 X101.382 Y98.255 E4.16306
G1 X98.618 Y95.490 E4.23644
G1 X98.618 Y94.865 E4.24818
G1 X101.382 Y97.629 E4.32157
G1 X101.382 Y97.003 E4.33331
G1 X98.618 Y94.239 E4.40669
G1 X98.618 Y93.614 E4.41843
G1 X101.382 Y96.378 E4.49182
G1 X101.382 Y95.752 E4.50356
G1 X98.618 Y92.988 E4.57694
G1 X98.618 Y92.363 E4.58868
G1 X101.382 Y95.127 E4.66207
G1 X101.382 Y94.501 E4.67381
G1 X98.618 Y91.737 E4.74719
G1 X98.618 Y91.112 E4.75893
G1 X101.382 Y93.876 E4.83232
G1 X101.382 Y93.250 E4.84406
G1 X98.618 Y90.486 E4.91744
G1 X98.618 Y89.861 E4.92918
G1 X101.382 Y92.625 E5.00257
G1 X101.382 Y91.999 E5.01431
G1 X98.618 Y89.235 E5.08769
G1 X98.618 Y88.610 E5.09943
G1 X101.382 Y91.374 E5.17282
G1 X101.382 Y90.748 E5.18456
G1 X98.618 Y87.984 E5.25794
G1 X98.618 Y87.359 E5.26968
G1 X101.382 Y90.123 E5.34307
G1 X101.382 Y89.497 E5.35481
G1 X99.003 Y87.118 E5.41797
G1 X99.628 Y87.118 E5.42972
G1 X101.382 Y88.872 E5.47627
G1 X101.382 Y88.246 E5.48802
G1 X100.254 Y87.118 E5.51797
G1 X100.879 Y87.118 E5.52971
G1 X101.578 Y87.817 E5.54826
M106 S255
G1 Z1.250 F7800.000
; PURGING FINISHED
G1 E3.54826 F2400.00000
G92 E0
G1 X100.519 Y112.488 F7800.000
G1 E2.00000 F2400.00000
G1 F696
G1 X100.382 Y112.601 E2.00378
G1 X100.220 Y112.677 E2.00755
G1 X100.045 Y112.711 E2.01132
G1 X99.867 Y112.700 E2.01510
G1 X99.697 Y112.645 E2.01888
G1 X99.546 Y112.549 E2.02265
G1 X99.424 Y112.419 E2.02641
G1 X99.337 Y112.261 E2.03023
G1 X99.293 Y112.089 E2.03397
G1 X99.293 Y111.911 E2.03775
G1 X99.338 Y111.738 E2.04152
G1 X99.423 Y111.583 E2.04527
G1 X99.547 Y111.451 E2.04909
G1 X99.697 Y111.355 E2.05285
G1 X99.866 Y111.300 E2.05661
G1 X100.046 Y111.289 E2.06043
G1 X100.220 Y111.323 E2.06417
G1 X100.382 Y111.399 E2.06795
G1 X100.519 Y111.512 E2.07172
G1 X100.624 Y111.656 E2.07548
G1 X100.690 Y111.824 E2.07930
G1 X100.712 Y112.000 E2.08304
G1 X100.690 Y112.176 E2.08680
G1 X100.623 Y112.344 E2.09063
G1 X100.563 Y112.427 E2.09278
G1 X100.837 Y112.871 F7800.000
G1 F696
G1 X100.651 Y113.025 E2.09789
G1 X100.375 Y113.155 E2.10432
G1 X100.076 Y113.212 E2.11076
G1 X99.772 Y113.193 E2.11719
G1 X99.483 Y113.099 E2.12363
G1 X99.226 Y112.936 E2.13007
G1 X99.018 Y112.714 E2.13649
G1 X98.870 Y112.445 E2.14297
G1 X98.795 Y112.152 E2.14937
G1 X98.795 Y111.848 E2.15581
G1 X98.871 Y111.553 E2.16224
G1 X99.017 Y111.288 E2.16864
G1 X99.226 Y111.064 E2.17512
G1 X99.483 Y110.901 E2.18155
G1 X99.772 Y110.807 E2.18797
G1 X100.078 Y110.788 E2.19446
G1 X100.375 Y110.845 E2.20085
G1 X100.651 Y110.975 E2.20729
G1 X100.885 Y111.169 E2.21372
G1 X101.064 Y111.415 E2.22015
G1 X101.177 Y111.700 E2.22663
G1 X101.214 Y112.000 E2.23303
G1 X101.176 Y112.302 E2.23946
G1 X101.063 Y112.587 E2.24594
G1 X100.892 Y112.822 E2.25208
G1 X101.251 Y113.175 F7800.000
G1 F696
G1 X100.920 Y113.449 E2.26118
G1 X100.530 Y113.633 E2.27027
G1 X100.108 Y113.713 E2.27937
G1 X99.678 Y113.686 E2.28847
G1 X99.269 Y113.553 E2.29756
G1 X98.906 Y113.323 E2.30666
G1 X98.611 Y113.009 E2.31575
G1 X98.403 Y112.630 E2.32489
G1 X98.297 Y112.215 E2.33395
G1 X98.297 Y111.785 E2.34304
G1 X98.404 Y111.368 E2.35214
G1 X98.610 Y110.993 E2.36119
G1 X98.906 Y110.677 E2.37033
G1 X99.269 Y110.447 E2.37943
G1 X99.678 Y110.314 E2.38852
G1 X100.110 Y110.287 E2.39766
G1 X100.530 Y110.367 E2.40671
G1 X100.920 Y110.551 E2.41581
G1 X101.251 Y110.825 E2.42491
G1 X101.504 Y111.173 E2.43400
G1 X101.663 Y111.575 E2.44314
G1 X101.717 Y112.000 E2.45219
G1 X101.663 Y112.427 E2.46129
G1 X101.503 Y112.829 E2.47043
G1 X101.295 Y113.114 E2.47790
G1 X100.832 Y113.077 F7800.000
G1 X99.871 Y112.544
G1 F696
G1 X100.320 Y112.095 E2.49367
G1 X100.336 Y112.000 E2.49607
G1 X100.325 Y111.918 E2.49812
G1 X100.245 Y111.770 E2.50230
G1 X100.104 Y111.681 E2.50645
G1 X100.022 Y111.665 E2.50851
G1 X99.908 Y111.679 E2.51137
G1 X99.458 Y112.130 E2.52719
G1 E0.52719 F2400.00000
G92 E0
G1 X100.045 Y88.711 F7800.000
G1 E2.00000 F2400.00000
G1 F696
G1 X99.867 Y88.700 E2.00377
G1 X99.697 Y88.645 E2.00755
G1 X99.546 Y88.549 E2.01132
G1 X99.424 Y88.419 E2.01510
G1 X99.338 Y88.262 E2.01887
G1 X99.293 Y88.089 E2.02265
G1 X99.293 Y87.911 E2.02643
G1 X99.338 Y87.738 E2.03020
G1 X99.424 Y87.581 E2.03397
G1 X99.546 Y87.451 E2.03775
G1 X99.697 Y87.355 E2.04153
G1 X99.866 Y87.300 E2.04528
G1 X100.046 Y87.289 E2.04911
G1 X100.220 Y87.323 E2.05285
G1 X100.382 Y87.399 E2.05662
G1 X100.519 Y87.512 E2.06040
G1 X100.624 Y87.656 E2.06416
G1 X100.690 Y87.824 E2.06798
G1 X100.712 Y88.000 E2.07172
G1 X100.690 Y88.177 E2.07550
G1 X100.624 Y88.343 E2.07927
G1 X100.519 Y88.488 E2.08305
G1 X100.382 Y88.601 E2.08682
G1 X100.220 Y88.677 E2.09060
G1 X100.118 Y88.697 E2.09279
G1 X100.013 Y89.208 F7800.000
G1 F696
G1 X99.772 Y89.193 E2.09789
G1 X99.483 Y89.099 E2.10433
G1 X99.226 Y88.936 E2.11076
G1 X99.017 Y88.714 E2.11720
G1 X98.871 Y88.447 E2.12363
G1 X98.795 Y88.152 E2.13007
G1 X98.795 Y87.848 E2.13651
G1 X98.871 Y87.553 E2.14294
G1 X99.017 Y87.286 E2.14938
G1 X99.226 Y87.064 E2.15581
G1 X99.483 Y86.901 E2.16225
G1 X99.772 Y86.807 E2.16867
G1 X100.078 Y86.788 E2.17516
G1 X100.375 Y86.845 E2.18155
G1 X100.651 Y86.975 E2.18799
G1 X100.885 Y87.169 E2.19443
G1 X101.064 Y87.415 E2.20085
G1 X101.177 Y87.700 E2.20733
G1 X101.214 Y88.000 E2.21373
G1 X101.176 Y88.302 E2.22017
G1 X101.064 Y88.585 E2.22660
G1 X100.885 Y88.831 E2.23304
G1 X100.651 Y89.025 E2.23947
G1 X100.375 Y89.155 E2.24591
G1 X100.088 Y89.210 E2.25209
G1 X100.108 Y89.713 F7800.000
G1 F696
G1 X99.678 Y89.686 E2.26119
G1 X99.269 Y89.553 E2.27028
G1 X98.906 Y89.323 E2.27938
G1 X98.611 Y89.009 E2.28847
G1 X98.404 Y88.632 E2.29757
G1 X98.297 Y88.215 E2.30667
G1 X98.297 Y87.785 E2.31576
G1 X98.404 Y87.368 E2.32486
G1 X98.611 Y86.991 E2.33396
G1 X98.906 Y86.677 E2.34305
G1 X99.269 Y86.447 E2.35215
G1 X99.678 Y86.314 E2.36124
G1 X100.110 Y86.287 E2.37039
G1 X100.530 Y86.367 E2.37944
G1 X100.920 Y86.551 E2.38853
G1 X101.251 Y86.825 E2.39763
G1 X101.504 Y87.173 E2.40672
G1 X101.663 Y87.575 E2.41587
G1 X101.717 Y88.000 E2.42492
G1 X101.663 Y88.427 E2.43401
G1 X101.504 Y88.827 E2.44311
G1 X101.251 Y89.175 E2.45221
G1 X100.920 Y89.449 E2.46130
G1 X100.530 Y89.633 E2.47040
